!!!OTL@@DE: Fr&uuml;hlingsempfindung
!!!COM: Sterkel, Joh. Franz Xaver
!!!CDT: 1801
!!!OMD: Moderato
!!!LYR: Becker, Wilhelm Gottlib
!!!LDT: 1782
!!!OCL: Erk, Ludwig
!!!GCO: Deutscher Liederschatz, Band 1
**kern	**kern	**kern
*staff3	*staff2	*staff1
*Ipiano	*Ipiano	*Ivox
*clefF4	*clefG2	*clefG2
*k[f#]	*k[f#]	*k[f#]
*G:	*G:	*G:
*met(C)	*met(C)	*met(C)
*M4/4	*M4/4	*M4/4
*MM104	*MM104	*MM104
4r	4r	8d/
.	.	8d/
=1	=1	=1
4GG/	8r	4.g/
.	8d/L	.
4r	8B/ 8g/	.
.	8d/J	8g/
4G\	8r	4.g/
.	8d/L	.
4r	8B/ 8g/	.
.	8d/J	8g/
=2	=2	=2
4DD/	8r	8g/L
.	8d/L	8f#/J
4r	8A/ 8f#/	4f#/
.	8d/J	.
4D\	8r	4r
.	8d/L	.
4r	8A/ 8f#/	8d/
.	8d/J	8f#/
=3	=3	=3
4DD/	8r	4.a/
.	8d/L	.
4r	8c/ 8f#/	.
.	8d/J	8a/
4D\	8r	8a/L
.	8d/L	8cc/J
4r	8c/ 8f#/	8b/L
.	8d/J	8a/J
=4	=4	=4
4GG/	8r	8a/L
.	8d/L	8g/J
4r	8B/ 8g/	4g/
.	8d/J	.
4G\	8r	4r
.	8d/L	.
4r	8B/ 8g/	8b\
.	8d/J	8b\
=5	=5	=5
4EE/	8r	4.b\
.	8c#/L	.
4r	8A/ 8g/	.
.	8c#/J	8g/
4E\	8r	4g/
.	8c#/L	.
4r	8A/ 8g/	8a/L
.	8c#/J	8b/J
=6	=6	=6
4D\	8r	(4b\
.	8d/L	.
4r	8A/ 8f#/	4a/)
.	8d/J	.
4DD/	4A/ 4d/ 4f#/	4r
4r	4r	8cc\
.	.	8a/
=7	=7	=7
4DD/	8r	8g/L
.	8d/L	8f#/J
4r	8A/ 8cn/	8e/L
.	8d/J	8d/J
4D\	8r	(4d/
.	8d/L	.
4r	8A/ 8c/	8e/)
.	8d/J	8f#/
=8	=8	=8
4GG/	8r	8a/L
.	8d/L	8g/J
4BB/	8B/ 8g/	4g/
.	8d/J	.
2D\	8r	4r
.	8d/L	.
.	8A/ 8f#/	8cc\
.	8d/J	8a/
=9	=9	=9
4DD/	8r	8g/L
.	8d/L	8f#/J
4r	8A/ 8c/	8e/L
.	8d/J	8d/J
4D\	8r	(4d/
.	8d/L	.
4r	8A/ 8c/	8e/)
.	8d/J	8f#/
=10	=10	=10
4GG/	8r	8a/L
.	8d/L	8g/J
4BB/	8B/ 8g/	4g/
.	8d/J	.
4D\	8r	4r
.	8d/L	.
4G\	8B/ 8g/	8b\
.	8d/J	8b\
=11	=11	=11
4C/	8r	8b/L
.	8c/ 8e/ 8a/	8a/J
4AA/	8r	8cc/L
.	8c/ 8e/ 8a/	8a/J
4D\	8r	8a/L
.	8B/ 8d/ 8g/	8g/J
4C/	8r	8g/L
.	8A/ 8d/ 8f#/	8f#/J
=12	=12	=12
2.BB/	8r	2.dd\
.	8d/L	.
.	8g/	.
.	8d/J	.
.	8g/ 8dd/L	.
.	8d/	.
8AA/L	8f#/ 8cc/	8cc\
8GG/J	8g/ 8b/J	8b\
=13	=13	=13
4C/	8r	8b/L
.	8c/ 8e/ 8a/	8a/J
4AA/	8r	8cc/L
.	8c/ 8e/ 8a/	8a/J
4D\	8r	8a/L
.	8B/ 8d/ 8g/	8g/J
4DD/	8r	8g/L
.	8A/ 8c/ 8f#/	8f#/J
=14	=14	=14
4GG/	4B/ 4g/	2g/
4G\	4d/ 4g/ 4b/	.
4GG/	4B/ 4d/ 4g/	4r
==	==	==
*-	*-	*-
!!!ENC: Craig Stuart Sapp
!!!END: 2004/05/17/
!!!EFL: 005/651
